X:1
T:Lord’s Day, 76.76 refrain
T:Lord’s Day, 76.76 refrain
T:Felix Mendelssohn (1809-1847)
T:Public Domain Courtesy of the Cyber Hymnal™
C:Felix Mendelssohn (1809-1847)
Z:Public Domain
Z:Courtesy of the Cyber Hymnal™
%%score ( 1 2 ) ( 3 4 )
L:1/8
Q:1/4=110
M:4/4
K:Eb
V:1 treble 
V:2 treble 
V:3 bass 
V:4 bass 
V:1
 [GB]2 | [GB]2 ([EG][FA]) [GB]2 [EG]2 | E4 [DF]2 [FA]2 | [EG]2 ([DF][EG]) [FA]2 [Ac]2 | [GB]6 G2 | %5
 [FA]2 [GB]2 [Ac]2 [Fd]2 | [Ee]4 [Ec]2 [Ec]2 | [FA]2 [GA]2 [FA]2 [EA]2 | [DG]6 | [FG]2 | %10
 [EG]4 [DG]4 | [EG]2 [EG]2 [GB]2 [FA]2 | [EG]6 [DF]2 | E6 |] %14
V:2
 x2 | x8 | E4 x4 | x8 | x6 G2 | x8 | x8 | x8 | x6 | x2 | x8 | x8 | x8 | E6 |] %14
V:3
 [E,B,]2 | [E,B,]2 [E,B,]2 [E,B,]2 [G,,B,]2 | [C,G,]4 [B,,B,]2 [B,,B,]2 | %3
 [E,B,]2 [E,B,]2 [E,B,]2 [B,,D]2 | [E,E]6 [E,E]2 | [E,D]2 [E,_D]2 [E,C]2 [E,=B,]2 | %6
 [A,,C]4 A,2 A,2 | [F,C]2 [E,C]2 [D,C]2 [C,C]2 | [=B,,D]6 | [D,=B,]2 | [C,C]4 [=B,,G,]4 | %11
 [C,G,]2 [C,C]2 [A,,C]2 [A,,C]2 | [B,,B,]6 [B,,A,]2 | [E,G,]6 |] %14
V:4
 x2 | x8 | x8 | x8 | x8 | x8 | x4 A,2 A,2 | x8 | x6 | x2 | x8 | x8 | x8 | x6 |] %14

